resources/haticons/SVG/visualstudiocode.svg

<!-- Generated by IcoMoon.io -->
<svg version="1.1" xmlns="http://www.w3.org/2000/svg" width="24" height="24" viewBox="0 0 24 24">
<title>visualstudiocode</title>
<path d="M24 2.5v19l-6 2.5-18-5.5v-0.561l18 1.545v-19.484zM1 13.111l3.385-3.111-3.385-3.111 1.418-0.827 3.435 2.588 6.147-5.65 3 1.456v11.088l-3 1.456-6.147-5.65-3.434 2.589zM7.644 10l4.356 3.283v-6.566z"></path>
</svg>

<svg xmlns="http://www.w3.org/2000/svg" width="24" height="24"><path d="M24 2.5v19L18 24 0 18.5v-.561l18 1.545V0zM1 13.111L4.385 10 1 6.889l1.418-.827L5.853 8.65 12 3l3 1.456v11.088L12 17l-6.147-5.65-3.434 2.589zM7.644 10L12 13.283V6.717z"/></svg>
